X:1
T:Title
%%score { ( 1 3 ) | ( 2 4 ) }
L:1/8
M:4/4
K:F
V:1 treble nm="Grand Piano"
V:3 treble 
V:2 bass 
V:4 bass 
V:1
 z4 z2[Q:1/4=100] A2 | B2 A2 [EG]2 [DF]2 |[M:9/8] [DG]2 E- E F2- F G2 |[M:4/4] A2 [G=B]2 [Gc]2 d2 | %4
[M:7/8] c2 [D=B]2 [Ec]3 |[M:1/4] F2 |[M:4/4] F3 F F2 [EG]2 | %7
[M:9/8] [FA]2 [FB]- [FB] [Ec]2- [Ec] [A,DF]2 |[M:4/4] [DFB]4 A2 G2 | z4 [Fd]4 | c2 z2 z4 | %11
[M:9/8] [A,F]8- [A,F] |] %12
V:2
 z4 z2 [F,CF]2 | [F,DF]2 [F,CF]2 [C,B,]2 [D,A,]2 | %2
[M:9/8] [B,,B,]2 [C,G,C]- [C,G,C] [F,A,C]2- [F,A,C] [E,C]2 | %3
[M:4/4] [F,CF]2 [F,D]2 [E,C]2 [F,A,F]2 |[M:7/8] [G,E]2 [G,,G,]2 [C,G,]3 |[M:1/4] [F,A,]2 | %6
[M:4/4] [F,A,C]3 [E,A,C] [D,A,D]2 [C,C]2 |[M:9/8] [F,C]2 [D,F,]- [D,F,] [A,,A,]2- [A,,A,] D,2 | %8
[M:4/4] G,,4 C,2 B,,2 | A,,4 F,2 z2 | A,2 C2 C,4 |[M:9/8] F,8- F, |] %12
V:3
 x8 | x8 |[M:9/8] x9 |[M:4/4] x8 |[M:7/8] x7 |[M:1/4] x2 |[M:4/4] x8 |[M:9/8] x9 | %8
[M:4/4] z4 [CE]4 | [CFc]4 z2 G,2 | F2- [FA]2 [B,EG]4 |[M:9/8] x9 |] %12
V:4
 x8 | x8 |[M:9/8] x9 |[M:4/4] x8 |[M:7/8] x7 |[M:1/4] x2 |[M:4/4] x8 |[M:9/8] x9 |[M:4/4] x8 | %9
 z4 B,,4 | C,4 z4 |[M:9/8] x9 |] %12

